configs/network-logos/open-campus-dark.svg

<svg width="121" height="24" viewBox="0 0 121 24" fill="none" xmlns="http://www.w3.org/2000/svg">
<g clip-path="url(#clip0_11473_24165)">
<mask id="mask0_11473_24165" style="mask-type:luminance" maskUnits="userSpaceOnUse" x="0" y="0" width="25" height="24">
<path d="M24.7968 0H0V24H24.7968V0Z" fill="white"/>
</mask>
<g mask="url(#mask0_11473_24165)">
<path d="M12.399 0.00340455C9.98375 0.0328969 7.63127 0.761777 5.63763 2.0983C3.644 3.43482 2.09824 5.31933 1.19477 7.51471C0.291301 9.71005 0.0705125 12.1182 0.560168 14.4363C1.04983 16.7544 2.22802 18.8787 3.9466 20.5421C5.66519 22.2055 7.84733 23.3337 10.2186 23.7847C12.5898 24.2357 15.0442 23.9893 17.2729 23.0767C19.5016 22.164 21.4051 20.6257 22.7439 18.6555C24.0828 16.6852 24.7971 14.3709 24.7972 12.0037C24.7767 8.80111 23.459 5.73769 21.1339 3.48723C18.8088 1.23679 15.6668 -0.0163787 12.399 0.00340455Z" fill="#00EDBE"/>
<path d="M17.2955 7.56572C17.2623 6.96566 17.4117 6.36945 17.7246 5.85267H7.73038C7.6408 5.85237 7.55206 5.86934 7.4692 5.90264C7.38634 5.93594 7.31092 5.9849 7.24738 6.04676C7.18384 6.10862 7.13332 6.18213 7.09876 6.26307C7.06414 6.34407 7.0462 6.43094 7.0459 6.51872V8.61236C7.0462 8.70014 7.06414 8.78696 7.09876 8.86796C7.13332 8.94896 7.18384 9.02246 7.24738 9.08432C7.31092 9.14612 7.38634 9.19514 7.4692 9.22844C7.55206 9.26174 7.6408 9.27872 7.73038 9.27836H17.7246C17.4117 8.76158 17.2623 8.16578 17.2955 7.56572Z" fill="#141BEB"/>
<path d="M5.49621 12.0431C5.52881 12.6433 5.37888 13.2393 5.06543 13.7558H15.0597C15.1493 13.7561 15.238 13.7392 15.3209 13.7059C15.4038 13.6726 15.4792 13.6235 15.5427 13.5617C15.6063 13.4999 15.6568 13.4264 15.6914 13.3454C15.7259 13.2644 15.7439 13.1776 15.7442 13.0898V10.9961C15.7439 10.9084 15.7259 10.8215 15.6914 10.7405C15.6568 10.6595 15.6063 10.586 15.5427 10.5242C15.4792 10.4623 15.4038 10.4134 15.3209 10.3801C15.238 10.3468 15.1493 10.3298 15.0597 10.3301H5.06543C5.3784 10.8469 5.52775 11.4431 5.49457 12.0431" fill="#141BEB"/>
<path d="M17.2955 16.5077C17.2623 15.9077 17.4117 15.3115 17.7246 14.7947H7.73038C7.6408 14.7944 7.55206 14.8114 7.4692 14.8447C7.38634 14.878 7.31092 14.9269 7.24738 14.9888C7.18384 15.0506 7.13332 15.1241 7.09876 15.2051C7.06414 15.2861 7.0462 15.373 7.0459 15.4607V17.5544C7.0462 17.6422 7.06414 17.729 7.09876 17.81C7.13332 17.891 7.18384 17.9645 7.24738 18.0263C7.31092 18.0882 7.38634 18.1372 7.4692 18.1705C7.55206 18.2038 7.6408 18.2207 7.73038 18.2204H17.7246C17.4117 17.7036 17.2623 17.1079 17.2955 16.5077Z" fill="#141BEB"/>
</g>
<path d="M38.5341 6.88232C41.462 6.88232 43.372 8.84816 43.372 12.0966C43.372 14.5643 41.9081 17.0878 38.576 17.0878C35.6064 17.0878 33.7521 14.9826 33.7521 11.8735C33.7521 9.35006 35.3415 6.88232 38.5341 6.88232ZM40.7091 11.9154C40.7091 10.0471 39.8168 9.15488 38.576 9.15488C37.14 9.15488 36.3314 10.2841 36.3314 12.0129C36.3314 13.5744 37.1818 14.8013 38.5202 14.8013C40.012 14.8013 40.7091 13.6581 40.7091 11.9154ZM48.8229 9.87986C50.4681 9.87986 51.8762 11.1067 51.8762 13.4211C51.8762 15.6517 50.3705 16.8926 48.6556 16.9065C47.7354 16.9065 46.9686 16.4743 46.8571 16.2931C46.8571 16.7532 46.9129 19.7088 46.7874 19.7925C46.6619 19.8901 44.7519 19.9737 44.487 19.8343C44.4452 19.8204 44.5288 10.1447 44.6543 9.83798C44.6682 9.79616 46.7456 9.9077 46.7456 9.9077C46.7456 9.99134 46.7316 10.5769 46.7316 10.6606C46.8292 10.4933 47.5682 9.87986 48.8229 9.87986ZM49.52 13.449C49.52 12.5009 48.9484 11.999 48.1955 11.999C47.2475 11.999 46.8014 12.5985 46.8014 13.435C46.8014 14.3551 47.4426 14.9128 48.1398 14.9128C49.0181 14.9128 49.52 14.3133 49.52 13.449ZM54.8095 13.9788C54.8095 14.7177 55.3393 15.1777 56.3013 15.1777C57.0542 15.1777 57.57 14.9128 57.9325 14.6898C58.0719 14.8292 58.6435 15.9864 58.6575 16.1955C58.281 16.5441 57.3191 16.9902 56.1897 16.9902C53.6663 16.9902 52.6485 15.3032 52.6485 13.5187C52.6485 11.6365 53.8196 9.87986 56.0085 9.87986C57.8628 9.87986 58.9921 11.274 58.9921 12.8355C58.9921 13.2677 58.9503 13.6302 58.8666 13.909C58.1695 14.0066 55.646 14.0066 54.8095 13.9788ZM54.7956 12.6961L56.9844 12.6543C57.0123 11.9711 56.6638 11.4413 55.9946 11.4413C55.2696 11.4413 54.7956 11.985 54.7956 12.6961ZM60.0222 10.1169C60.1482 9.9356 62.1 9.85196 62.2254 9.97742C62.2116 10.2702 62.1972 10.7303 62.1834 10.8139C62.49 10.3539 63.1734 9.83798 64.3026 9.83798C65.8224 9.83798 66.7704 11.0509 66.7704 12.8494C66.7704 13.7835 66.7146 16.1397 66.6588 16.8229C66.645 16.9623 64.5534 16.9344 64.512 16.9065C64.4562 16.8786 64.5258 13.5883 64.5258 13.0864C64.5258 12.3336 64.191 11.8038 63.4662 11.8038C62.6994 11.8038 62.2392 12.4033 62.2392 12.9471C62.2392 13.4211 62.2254 16.7671 62.1834 16.8229C62.1414 16.8786 60.1062 16.8508 60.0642 16.7671C60.0366 16.7113 59.9807 13.0725 60.0222 10.1169ZM73.2024 11.9711C73.2024 13.9648 74.4294 14.7595 75.6144 14.7595C76.7436 14.7595 77.5104 14.16 77.817 13.9369C78.138 14.16 78.7512 15.2893 78.9744 15.7633C78.375 16.4464 76.9668 17.1157 75.3636 17.1157C72.1008 17.1157 70.581 14.7874 70.581 11.8735C70.581 9.07118 72.561 6.91022 75.726 6.91022C77.3292 6.91022 78.486 7.41212 78.9186 7.83038C78.9186 8.1092 78.333 9.61496 77.9844 9.9077C77.4822 9.61496 76.632 9.23852 75.7536 9.23852C74.3178 9.23852 73.2024 10.3818 73.2024 11.9711ZM79.6494 11.3577C79.6632 11.1207 80.5836 9.81014 82.4514 9.81014C84.1806 9.81014 85.5186 10.8279 85.5186 12.8634C85.5186 14.3551 85.449 16.6695 85.407 16.7532C85.3656 16.8368 83.6088 16.7532 83.6088 16.7532L83.4834 16.1536C83.3856 16.2513 82.8 16.9204 81.6984 16.9204C80.1792 16.9204 79.5378 16.0282 79.5378 14.8152C79.5378 13.5605 80.6394 12.7658 82.0332 12.7658C82.6746 12.7658 83.0652 12.9471 83.3298 13.1422C83.3436 12.5427 83.3718 11.7202 82.1172 11.7202C81.2526 11.7202 80.8482 12.3336 80.7228 12.3475C80.5974 12.3475 79.635 11.511 79.6494 11.3577ZM81.4062 14.7734C81.4062 15.2335 81.7962 15.5542 82.3122 15.5542C82.9254 15.5542 83.232 15.1917 83.232 14.7734C83.232 14.2855 82.8282 13.9788 82.3122 13.9788C81.7686 13.9788 81.4062 14.3273 81.4062 14.7734ZM86.8848 10.0332C87.0108 9.82406 88.9626 9.94952 89.088 10.075C89.0742 10.3678 89.0598 10.7442 89.046 10.8279C89.3526 10.3678 89.8824 9.87986 91.0116 9.87986C91.7928 9.87986 92.4198 10.2702 92.7966 10.8837C93.2706 10.0471 94.3302 9.87986 94.9014 9.87986C96.6582 9.87986 97.4388 11.037 97.4388 12.8215C97.4388 13.7696 97.383 16.1815 97.3416 16.8368C97.3272 16.9623 95.2086 16.9623 95.1666 16.9204C95.1246 16.8926 95.1942 13.6999 95.1942 13.0446C95.1942 12.3615 95.013 11.8456 94.2744 11.8456C93.5076 11.8456 93.2844 12.5985 93.2844 13.0307C93.2844 14.0345 93.2424 16.0979 93.201 16.795C93.1866 16.9204 91.0818 16.8368 91.0536 16.8089C90.9978 16.7811 91.0674 13.5187 91.0674 13.0446C91.0674 12.3615 90.8724 11.8456 90.1476 11.8456C89.4222 11.8456 89.1156 12.4591 89.1156 12.9052C89.1156 13.3095 89.088 16.8368 89.046 16.8926C89.004 16.9483 86.9688 16.9204 86.9268 16.8368C86.8992 16.7811 86.8434 12.9889 86.8848 10.0332ZM103.133 9.87986C104.779 9.87986 106.187 11.1067 106.187 13.4211C106.187 15.6517 104.681 16.8926 102.966 16.9065C102.046 16.9065 101.279 16.4743 101.168 16.2931C101.168 16.7532 101.224 19.7088 101.098 19.7925C100.973 19.8901 99.0624 19.9737 98.7978 19.8343C98.7558 19.8204 98.8392 10.1447 98.9652 9.83798C98.979 9.79616 101.056 9.9077 101.056 9.9077C101.056 9.99134 101.042 10.5769 101.042 10.6606C101.14 10.4933 101.879 9.87986 103.133 9.87986ZM103.831 13.449C103.831 12.5009 103.259 11.999 102.506 11.999C101.558 11.999 101.112 12.5985 101.112 13.435C101.112 14.3551 101.753 14.9128 102.451 14.9128C103.329 14.9128 103.831 14.3133 103.831 13.449ZM113.819 16.795C113.693 16.9762 111.881 16.9204 111.741 16.795C111.755 16.5022 111.741 16.0979 111.755 16.0003C111.448 16.4464 110.737 17.032 109.692 17.032C108.005 17.032 107.196 16.0003 107.196 14.0484C107.196 13.0446 107.336 10.6606 107.377 10.0053C107.405 9.86588 109.496 9.89378 109.538 9.9356C109.566 10.089 109.427 13.2677 109.427 13.8114C109.427 14.5922 109.762 15.0662 110.486 15.0662C111.253 15.0662 111.658 14.4807 111.671 13.8672C111.671 13.4629 111.727 10.0332 111.783 9.97742C111.825 9.92168 113.846 9.94952 113.902 10.0332C113.916 10.089 113.874 13.8254 113.819 16.795ZM117.864 17.0599C116.47 17.0599 115.201 16.5022 115.006 16.2931C114.895 16.1536 115.536 14.634 115.648 14.6898C115.87 14.8013 116.735 15.4287 117.627 15.4287C118.185 15.4287 118.463 15.2335 118.463 14.9268C118.463 14.62 118.24 14.4528 117.334 14.2855C115.773 14.0206 115.048 13.3653 115.048 12.1942C115.048 10.7024 116.066 9.83798 117.781 9.83798C119.063 9.83798 120.193 10.2702 120.374 10.4514C120.499 10.5769 119.858 12.0408 119.76 12.0547C119.69 12.0547 118.798 11.511 117.989 11.511C117.446 11.511 117.209 11.7759 117.209 12.0547C117.209 12.3615 117.446 12.5009 118.255 12.6124C119.914 12.8494 120.652 13.4211 120.652 14.7177C120.652 15.9445 119.816 17.0599 117.864 17.0599Z" fill="white"/>
</g>
<defs>
<clipPath id="clip0_11473_24165">
<rect width="120.652" height="24" fill="white"/>
</clipPath>
</defs>
</svg>

<svg xmlns="http://www.w3.org/2000/svg" fill="none" viewBox="0 0 121 24">
  <g clip-path="url(#open-campus-dark_svg__a)">
    <mask id="open-campus-dark_svg__b" width="25" height="24" x="0" y="0" maskUnits="userSpaceOnUse" style="mask-type:luminance">
      <path fill="#fff" d="M24.797 0H0v24h24.797V0Z"/>
    </mask>
    <g mask="url(#open-campus-dark_svg__b)">
      <path fill="#00EDBE" d="M12.399.003a12.42 12.42 0 0 0-6.761 2.095 12.05 12.05 0 0 0-4.443 5.417 11.777 11.777 0 0 0-.635 6.921 11.933 11.933 0 0 0 3.387 6.106 12.328 12.328 0 0 0 6.272 3.243c2.37.45 4.825.204 7.054-.708a12.195 12.195 0 0 0 5.47-4.422 11.831 11.831 0 0 0 2.054-6.651 11.958 11.958 0 0 0-3.663-8.517A12.454 12.454 0 0 0 12.399.003Z"/>
      <path fill="#141BEB" d="M17.296 7.566c-.034-.6.116-1.197.429-1.713H7.73a.694.694 0 0 0-.483.194.668.668 0 0 0-.201.472v2.093a.656.656 0 0 0 .201.472.684.684 0 0 0 .483.194h9.995a2.986 2.986 0 0 1-.43-1.712Zm-11.8 4.477c.033.6-.117 1.196-.43 1.713h9.994a.694.694 0 0 0 .483-.194.667.667 0 0 0 .201-.472v-2.094a.658.658 0 0 0-.201-.472.681.681 0 0 0-.483-.194H5.065c.313.517.463 1.113.43 1.713m11.801 4.465a2.98 2.98 0 0 1 .429-1.713H7.73a.694.694 0 0 0-.483.194.667.667 0 0 0-.201.472v2.093a.656.656 0 0 0 .201.472.683.683 0 0 0 .483.194h9.995a2.986 2.986 0 0 1-.43-1.712Z"/>
    </g>
    <path fill="#fff" d="M38.534 6.882c2.928 0 4.838 1.966 4.838 5.215 0 2.467-1.464 4.99-4.796 4.99-2.97 0-4.824-2.104-4.824-5.213 0-2.524 1.59-4.992 4.782-4.992Zm2.175 5.033c0-1.868-.892-2.76-2.133-2.76-1.436 0-2.245 1.13-2.245 2.858 0 1.561.85 2.788 2.19 2.788 1.491 0 2.188-1.143 2.188-2.886Zm8.114-2.035c1.645 0 3.053 1.227 3.053 3.541 0 2.23-1.505 3.472-3.22 3.486-.92 0-1.687-.433-1.799-.614 0 .46.056 3.416-.07 3.5-.125.097-2.035.18-2.3.041-.042-.014.042-9.69.167-9.996.014-.042 2.092.07 2.092.07 0 .083-.014.669-.014.753.097-.168.836-.781 2.09-.781Zm.697 3.569c0-.948-.572-1.45-1.325-1.45-.947 0-1.394.6-1.394 1.436 0 .92.642 1.478 1.339 1.478.878 0 1.38-.6 1.38-1.464Zm5.29.53c0 .739.53 1.199 1.491 1.199.753 0 1.269-.265 1.631-.488.14.14.712 1.296.725 1.505-.376.35-1.338.795-2.467.795-2.524 0-3.541-1.687-3.541-3.471 0-1.883 1.17-3.64 3.36-3.64 1.854 0 2.983 1.395 2.983 2.957 0 .432-.042.794-.125 1.073-.697.098-3.221.098-4.057.07Zm-.014-1.283 2.188-.042c.028-.683-.32-1.213-.99-1.213-.724 0-1.198.544-1.198 1.255Zm5.226-2.58c.126-.18 2.078-.264 2.203-.139-.013.293-.028.753-.042.837.307-.46.99-.976 2.12-.976 1.52 0 2.467 1.213 2.467 3.011 0 .934-.055 3.29-.111 3.974-.014.14-2.106.111-2.147.084-.056-.028.014-3.319.014-3.82 0-.753-.335-1.283-1.06-1.283-.767 0-1.227.6-1.227 1.143 0 .474-.014 3.82-.056 3.876-.042.056-2.077.028-2.119-.056-.027-.056-.083-3.694-.042-6.65Zm13.18 1.855c0 1.994 1.227 2.788 2.412 2.788 1.13 0 1.896-.599 2.203-.822.321.223.934 1.352 1.157 1.826-.599.683-2.007 1.353-3.61 1.353-3.263 0-4.783-2.329-4.783-5.242 0-2.803 1.98-4.964 5.145-4.964 1.603 0 2.76.502 3.193.92 0 .28-.586 1.785-.935 2.078-.502-.293-1.352-.67-2.23-.67-1.436 0-2.552 1.144-2.552 2.733Zm6.447-.613c.014-.237.935-1.548 2.802-1.548 1.73 0 3.068 1.018 3.068 3.053 0 1.492-.07 3.806-.112 3.89-.041.084-1.798 0-1.798 0l-.126-.6c-.097.098-.683.767-1.785.767-1.519 0-2.16-.892-2.16-2.105 0-1.255 1.101-2.05 2.495-2.05.642 0 1.032.182 1.297.377.014-.6.042-1.422-1.213-1.422-.864 0-1.269.614-1.394.627-.126 0-1.088-.836-1.074-.99Zm1.757 3.415c0 .46.39.781.906.781.613 0 .92-.362.92-.78 0-.488-.404-.795-.92-.795-.543 0-.906.348-.906.794Zm5.479-4.74c.126-.209 2.078-.083 2.203.042-.014.293-.028.67-.042.753.307-.46.836-.948 1.966-.948.78 0 1.408.39 1.785 1.004.474-.837 1.533-1.004 2.104-1.004 1.757 0 2.538 1.157 2.538 2.941 0 .949-.056 3.36-.097 4.016-.015.125-2.133.125-2.175.083-.042-.027.027-3.22.027-3.875 0-.684-.181-1.2-.92-1.2-.766 0-.99.753-.99 1.186 0 1.003-.042 3.067-.083 3.764-.014.125-2.12.042-2.147.014-.056-.028.013-3.29.013-3.764 0-.684-.195-1.2-.92-1.2-.725 0-1.031.614-1.031 1.06 0 .405-.028 3.932-.07 3.988-.042.055-2.077.027-2.12-.056-.027-.056-.083-3.848-.041-6.804Zm16.248-.153c1.646 0 3.054 1.227 3.054 3.541 0 2.23-1.506 3.472-3.221 3.486-.92 0-1.687-.433-1.798-.614 0 .46.056 3.416-.07 3.5-.125.097-2.036.18-2.3.041-.042-.014.041-9.69.167-9.996.014-.042 2.091.07 2.091.07 0 .083-.014.669-.014.753.098-.168.837-.781 2.091-.781Zm.698 3.569c0-.948-.572-1.45-1.325-1.45-.948 0-1.394.6-1.394 1.436 0 .92.641 1.478 1.339 1.478.878 0 1.38-.6 1.38-1.464Zm9.988 3.346c-.126.181-1.938.125-2.078 0 .014-.293 0-.697.014-.795-.307.446-1.018 1.032-2.063 1.032-1.687 0-2.496-1.032-2.496-2.984 0-1.003.14-3.387.181-4.043.028-.14 2.119-.111 2.161-.07.028.154-.111 3.333-.111 3.876 0 .781.335 1.255 1.059 1.255.767 0 1.172-.585 1.185-1.199 0-.404.056-3.834.112-3.89.042-.055 2.063-.027 2.119.056.014.056-.028 3.792-.083 6.762Zm4.045.265c-1.394 0-2.663-.558-2.858-.767-.111-.14.53-1.659.642-1.603.222.111 1.087.739 1.979.739.558 0 .836-.196.836-.502 0-.307-.223-.474-1.129-.641-1.561-.265-2.286-.92-2.286-2.092 0-1.492 1.018-2.356 2.733-2.356 1.282 0 2.412.432 2.593.613.125.126-.516 1.59-.614 1.604-.07 0-.962-.544-1.771-.544-.543 0-.78.265-.78.544 0 .306.237.446 1.046.557 1.659.237 2.397.81 2.397 2.106 0 1.226-.836 2.342-2.788 2.342Z"/>
  </g>
  <defs>
    <clipPath id="open-campus-dark_svg__a">
      <path fill="#fff" d="M0 0h120.652v24H0z"/>
    </clipPath>
  </defs>
</svg>
